X:186
T:Drum Polka. Le4.186, The
Q:1/4=100
L:1/8
B:L.Leadley MS#4 c1850
Z:vmp.Mike Hicken 2016 www.village-music-project.org.uk
N: * These notes have been dotted to match the following semi-quaver.
N: ** The 2nd time bar has been added to give the correct repeat.
N: *** This semi-quaver rest has been added to give the correct bar length.
N: **** These notes are shown as quavers in the original.
N: ***** A quaver rest after this note has been moved to the next bar to give the correct repeat.
N: See http://imslp.org for a piano version of this tune. Some of the corrections are based on this.
M:2/4
K:A
ec !p!{d}c/B/c|df "*"La>g|fG {A/}(G/F/)G|{AB}A/!>(!G/A/!>)!c/ f=f|
!f!ec {d}!p!c/B/c|df "*"b>a|gG {A/}G/F/G|1 A/E/A/c/ Az :|2 "**"A/E/A/c/ A !fermata!||
z/c/|"*"B3/^A/Bz/c/|B/"***"z/e/"***"z/g/z/"***"z/ g/|.fz/.^e/.fz/.g/|f/z/d/"***"z/b/ z/z/c/|
B>^ABz/c/|B/z/e/z/g/ z/z/ g/|fz/^e/fz/e/|d/z/c/z/B/ "***"z/c|
!pp!B>^ABz/c/|B/z/e/z/g/ z/z/ g/|fz/^e/f"***"z/g/|f/z/d/z/b/ z/z/ c/|
Bz/^A/Bz/c/|B/z/e/z/g/ z/z/ g/|fz/^e/fz/g/|"****"e/z/"****"e/z/"****"e/ z/||
|:!p!(3A/B/A/|G !f!!>!f2!>!f|f{e/}e/d/ e(3a/b/a/|g !f!d'2 d'|!p!d'c' a (3A/B/A/|
G !>!f2 !>!f|f{f/}e/d/ e(3a/b/a/|gf2g| aa"*****"a !segno!:|
K:D
|:z|"_Solo"d2 d/A/f/A/|d2 d/A/f/A/|d/A/f/A/ d/A/f/A/|dz !ff!df|
a/b/a/B/ ag|f/g/f/A/ gf|e/f/e/G/ fe|d/E/A/d/ !ff!f/A/d/f/|
a/b/a/G/ ag|f/g/f/A/ gf|e/f/e/G/ fe|d/A/f/A/ d "_D Capo":|

